lib/healthicons/icons/solid/symbols/i_note_action.svg

<svg fill="none" height="48" viewBox="0 0 48 48" width="48" xmlns="http://www.w3.org/2000/svg"><g clip-rule="evenodd" fill="#333" fill-rule="evenodd"><path d="m13 8h4v2.0008c0 .5523.4477 1 1 1s1-.4477 1-1v-2.0008h8v2.0008c0 .5523.4477 1 1 1s1-.4477 1-1v-2.0008h1c1.6569 0 3 1.34315 3 3v24c0 1.6569-1.3431 3-3 3h-17c-1.6569 0-3-1.3431-3-3v-24c0-1.65685 1.3431-3 3-3zm2 10c-.5523 0-1 .4477-1 1s.4477 1 1 1h13c.5523 0 1-.4477 1-1s-.4477-1-1-1zm-1 6c0-.5523.4477-1 1-1h7c.5523 0 1 .4477 1 1s-.4477 1-1 1h-7c-.5523 0-1-.4477-1-1zm1 4c-.5523 0-1 .4477-1 1s.4477 1 1 1h11c.5523 0 1-.4477 1-1s-.4477-1-1-1z"/><path d="m8 10v25c0 2.7614 2.2386 5 5 5h17v2h-17c-3.86599 0-7-3.134-7-7v-25z"/><path d="m39 10c-1.6569 0-3 1.3431-3 3v3h6v-3c0-1.6569-1.3431-3-3-3zm3 8h-6v15l3 4 3-4z"/><path d="m26 6c.5523 0 1 .44772 1 1v4c0 .5523-.4477 1-1 1s-1-.4477-1-1v-4c0-.55228.4477-1 1-1z"/><path d="m16 6c.5523 0 1 .44772 1 1v4c0 .5523-.4477 1-1 1s-1-.4477-1-1v-4c0-.55228.4477-1 1-1z"/></g></svg>

<svg width="48" height="48" viewBox="0 0 48 48" fill="none" xmlns="http://www.w3.org/2000/svg">
<path fill-rule="evenodd" clip-rule="evenodd" d="M26 6C26.5523 6 27 6.44772 27 7V10.0008C27 10.5531 27.4477 11.0008 28 11.0008C28.5523 11.0008 29 10.5531 29 10.0008V8H30C31.6569 8 33 9.34315 33 11V35C33 36.6569 31.6569 38 30 38H13C11.3431 38 10 36.6569 10 35V11C10 9.34315 11.3431 8 13 8H15V7C15 6.44772 15.4477 6 16 6C16.5523 6 17 6.44772 17 7V10.0008C17 10.5531 17.4477 11.0008 18 11.0008C18.5523 11.0008 19 10.5531 19 10.0008V8H25V7C25 6.44772 25.4477 6 26 6ZM15 18C14.4477 18 14 18.4477 14 19C14 19.5523 14.4477 20 15 20H28C28.5523 20 29 19.5523 29 19C29 18.4477 28.5523 18 28 18H15ZM14 24C14 23.4477 14.4477 23 15 23H22C22.5523 23 23 23.4477 23 24C23 24.5523 22.5523 25 22 25H15C14.4477 25 14 24.5523 14 24ZM15 28C14.4477 28 14 28.4477 14 29C14 29.5523 14.4477 30 15 30H26C26.5523 30 27 29.5523 27 29C27 28.4477 26.5523 28 26 28H15Z" fill="#333333"/>
<path d="M13 42C9.13401 42 6 38.866 6 35V10H8V35C8 37.7614 10.2386 40 13 40H30V42H13Z" fill="#333333"/>
<path d="M36 13C36 11.3431 37.3431 10 39 10C40.6569 10 42 11.3431 42 13V16H36V13Z" fill="#333333"/>
<path d="M36 33V18H42V33L39 37L36 33Z" fill="#333333"/>
</svg>
